!!!!SEGMENT: pl-wtm--r-1539--002_stefani-jozef--msza-no-1-gloria.krn
!!!cenid: 18xx:1762
!!!COM: Stefani, Józef
!!!COM-rismid: pe30024097
!!!CDT: 1800/04/16-1876/03/19
!!!CNT: Polish
!!!OPR: Msza No 1
!!!OTL: Gloria
!!!OMV: 002
!!!PDT:
!!!AGN: Sacred; Mass
!!!SMS-siglum: PL-Wtm
!!!SMS-shelfmark: R 1539
!!!SMS-shelfwork: 001-002 M
!!!SMS-variant:
!!!SMS-altvar:
!!!NIFC-rismid: 1001120484
!!!URL-scan: http://repozytorium.nifc.pl/skany/pl-wtm-nut--r1539
!!!ONB-nifc: UWAGA: części Mszy: 1. Kyrie, 2. Gloria, 3. Graduale, 4. Credo, 5. Offertorium, 6. Sanctus, 7. Benedictus, 8. Agnus Dei. Uwaga: niektóre części razem z „przygrywkami”
**kern	**kern	**kern	**text	**text	**text	**dynam	**kern	**kern	**text	**dynam
*part4	*part4	*part3	*part3	*part3	*part3	*part3	*part2	*part1	*part1	*part1
*staff5	*staff4	*staff3	*staff3	*staff3	*staff3	*	*staff2	*staff1	*staff1	*
*Iorgan	*Iempty	*Iempty	*	*	*	*	*Ialto	*Isoprn	*	*
*I"Organo	*	*I"Baſso	*	*	*	*	*I"Alto	*I"Soprano	*	*
*I'org	*	*I'B	*	*	*	*	*I'A	*I'S	*	*
*clefF4	*clefG2	*clefF4	*	*	*	*	*clefG2	*clefG2	*	*
*k[]	*k[]	*k[]	*	*	*	*	*k[]	*k[]	*	*
*C:	*C:	*C:	*	*	*	*	*C:	*C:	*	*
*M2/4	*M2/4	*M2/4	*	*	*	*	*M2/4	*M2/4	*	*
*>[A,A1,A,A1,A,A2]	*>[A,A1,A,A1,A,A2]	*>[A,A1,A,A1,A,A2]	*	*	*	*	*>[A,A1,A,A1,A,A2]	*>[A,A1,A,A1,A,A2]	*	*
=1	=1	=1	=1	=1	=1	=1	=1	=1	=1	=1
*>A	*>A	*>A	*	*	*	*	*>A	*>A	*	*
*	*^	*	*	*	*	*	*	*	*	*
*2\right	*	*2\right	*	*	*	*	*	*	*	*	*
!!LO:TX:t=P:problem:all\right:global
!	!	!	!	!	!	!	!	!	!LO:TX:a:i:t=Allegretto.	!	!
[2CC\ [>2C 2G [2c	4cc/	2e\	4C/	1.) Chwa-	2.) Przed-	3.) Je-	.	4e/	4cc\	.	.
.	4g/	.	4C/	-łę	-nim	-mu	.	4e/	4g/	.	.
*	*v	*v	*	*	*	*	*	*	*	*	*
=2	=2	=2	=2	=2	=2	=2	=2	=2	=2	=2
*^	*	*	*	*	*	*	*	*	*	*
*	*^	*	*	*	*	*	*	*	*	*	*
2c/_	4F/ 4A	2CC\_< 2C_	4f/ 4a	4C/	Pa-	ko-	słoń-	.	4f/	4a/	.	.
.	4G/	.	4e/ 4g	4C/	-na	-ło	-ce	.	4e/	4g/	.	.
*	*v	*v	*	*	*	*	*	*	*	*	*	*
=3	=3	=3	=3	=3	=3	=3	=3	=3	=3	=3	=3
!	!	!	!	!	!	!	!	!	!LO:TX:a:i:u:t=Gloria.	!	!
4F/ 4A 4c]	2CC\_ 2C_>	4f/ 4a	4C/	wdziè-	czas	w_hoł-	.	4f/	4a/	.	.
4G/ 4d	.	4d/ 4f 4g 4b	4C/	-cznem	za-	-dzie	.	4d/	4b/	.	.
=4	=4	=4	=4	=4	=4	=4	=4	=4	=4	=4	=4
*	*^	*	*	*	*	*	*	*	*	*	*
4B/	2C\] 2G	2CC\]	4f/ 4g 4dd	4C/	piè-	-trzy-	świe-	.	4f/	4dd\	.	.
4c/	.	.	8e/L 8g 8cc	8C/	-nièm	-ma	-ci	.	8e/	8cc\	.	.
.	.	.	8e/J 8g	8r	.	.	.	.	8r	8r	.	.
*	*v	*v	*	*	*	*	*	*	*	*	*	*
=5	=5	=5	=5	=5	=5	=5	=5	=5	=5	=5	=5
4C\ 4c	2rAA	4e/ 4g	4C/	Lu-	Pa-	Wia-	.	4e/	4g/	.	.
4BB\ 4B	.	4d/ 4f 4a	8BB/	-dy	-dną	-try	.	8f/	8a/	.	.
.	.	.	8BB/	A-	te	wy-	.	8f/	8a/	.	.
=6	=6	=6	=6	=6	=6	=6	=6	=6	=6	=6	=6
*	*	*^	*	*	*	*	*	*	*	*	*
!	!	!	!	!	!	!	!	!	!	!	!	!LO:HP:a
4C\ 4c	4r	4g/	2e\	4C/	-nio-	świa-	-ro-	.	4e/	4g/	.	<
.	.	.	.	.	.	.	.	.	.	8qcc/	.	.
4AA\ 4A	4AAA\	4cc/	.	8AA\ 8A	-ły	-ty	-ki	.	8e/	8cc\	.	.
.	.	.	.	8AA\ 8A	ro-	i	ro-	.	8e/	8cc\	.	[[
*	*	*v	*v	*	*	*	*	*	*	*	*	*
!!LO:LB:g=original
=7	=7	=7	=7	=7	=7	=7	=7	=7	=7	=7	=7
*	*	*	*2\right	*	*	*	*	*	*	*	*
!	!	!	!	!	!	!	!	!	!	!	!LO:DY:a
4D\ 4G 4B	2DD\	4d/ 4g 4b	2D\	-znie-	słoń-	-zno-	.	(4d/	(>4b/	.	f
4D\ 4A 4c	.	4d/ 4f#X 4a	.	.	.	.	.	4f#X/)	4a/)	.	.
=8	=8	=8	=8	=8	=8	=8	=8	=8	=8	=8	=8
4G\ 4B	4GG\	4d/ 4g	4GG\ 4G	-ście	-ca	-szą	.	4g/	4g/	.	.
(16G\LL	4rCCC	4r	4r	.	.	.	.	4r	4r	.	.
16F\	.	.	.	.	.	.	.	.	.	.	.
16E\	.	.	.	.	.	.	.	.	.	.	.
16D\JJ)	.	.	.	.	.	.	.	.	.	.	.
=9	=9	=9	=9	=9	=9	=9	=9	=9	=9	=9	=9
*	*	*^	*	*	*	*	*	*	*	*	*
[<2C\ 2G [2c	[2CC\	4cc/	2e\	4C/	O	Je-	Lu-	.	4e/	4cc\	.	.
.	.	4g/	.	4C/	ży-	-mu	-dy	.	4e/	4g/	.	.
*	*	*v	*v	*	*	*	*	*	*	*	*	*
=10	=10	=10	=10	=10	=10	=10	=10	=10	=10	=10	=10
*	*^	*	*	*	*	*	*	*	*	*	*
2c/]	4F/ 4A	2CC\_< 2C_	4f/ 4a	4C/	-wie-	tyl-	ziem-	.	4f/	4a/	.	.
.	4G/	.	4e/ 4g	4C/	-ni	-ko	-skie	.	4e/	4g/	.	.
*	*v	*v	*	*	*	*	*	*	*	*	*	*
=11	=11	=11	=11	=11	=11	=11	=11	=11	=11	=11	=11
4F/ 4A 4c	2CC\_ 2C]	4f/ 4a	4C/	Je-	gra-	Je-	.	4f/	4a/	.	.
4G/ 4d	.	4d/ 4f 4g 4b	4C/	-go	-nic	-go	.	4d/	4b/	.	.
=12	=12	=12	=12	=12	=12	=12	=12	=12	=12	=12	=12
*	*^	*	*	*	*	*	*	*	*	*	*
4G/ 4B	[>4C\	4.CC\]	4f/ 4g 4dd	4C/	thnie-	nie-	dzie-	.	4f/	4dd\	.	.
8G/ 8c	8C\]	.	16e/LL 16g 16cc	8C/	-niem	-ma	-ci	.	8e/	8cc\	.	.
.	.	.	(16g/	.	.	.	.	.	.	.	.	.
8rF	8r	8ryy	16a/	8r	.	.	.	.	8r	8r	.	.
.	.	.	16b/JJ)	.	.	.	.	.	.	.	.	.
!!LO:PB:g=original
=13	=13	=13	=13	=13	=13	=13	=13	=13	=13	=13	=13	=13
*	*	*	*^	*	*	*	*	*	*	*	*	*
*	*	*	*	*^	*	*	*	*	*	*	*	*	*
!	!	!	!	!	!	!	!	!	!	!	!	!	!	!LO:DY:a
2G/	4C\	4CC\	4cc/	2g/	4e\	4C\	W_nim	Je-	Cno-	f	4e/	4cc\	W_nim	f
.	8D\L	8DD\L	8b/L	.	8f\L	8D\	i	-go	-tą	.	8f/	8b\	i	.
.	8E\J	8EE\J	8cc/J	.	8e\J	8E\	dla	iest	ku	.	8g/	8cc\	dla	.
*	*	*	*	*v	*v	*	*	*	*	*	*	*	*	*
=14	=14	=14	=14	=14	=14	=14	=14	=14	=14	=14	=14	=14	=14
4F/	4FF/	4FF\	8b/L	4c\	4F\	Nie-	wie-	Nie-	.	4c/	8b/L	Nie-	.
.	.	.	8a/	.	.	.	.	.	.	.	8a/J	.	.
!	!LO:TX:t=P:problem:kropka/8F	!	!	!	!	!	!	!	!	!	!	!	!
4A/	8E\L	8EE\L	8g/	8c#X\L	8E\	-go	-czność	-mu	.	8c#X/	8g/	go	.
.	8D\J	8DD\J	8f/J	8d\J	8D\	ie-	bez	się	.	8d/	8f/	ie-	.
=15	=15	=15	=15	=15	=15	=15	=15	=15	=15	=15	=15	=15	=15
2G/	4G\	2GG\	4e/	4c\	4G\	-ste-	koń-	wzno-	.	(4cn/	(4e/	-ste-	.
.	4GG/	.	4d/	4B\	4GG/	.	.	.	.	4B/)	4d/)	.	.
*	*v	*v	*	*	*	*	*	*	*	*	*	*	*
*	*	*v	*v	*	*	*	*	*	*	*	*	*
=16	=16	=16	=16	=16	=16	=16	=16	=16	=16	=16	=16
8C\L 8G	8CC\	8c/L 8e	4C/	-ście	-ca	-szą	.	4c/	4e/	-ście	.
8C\	8rCCC	8c/	.	.	.	.	.	.	.	.	.
8E\	4rCCC	8e/	4r	.	.	.	.	4r	4r	.	.
8G\J	.	8g/J	.	.	.	.	.	.	.	.	.
=17	=17	=17	=17	=17	=17	=17	=17	=17	=17	=17	=17
*	*^	*^	*	*	*	*	*	*	*	*	*
*	*	*	*	*^	*	*	*	*	*	*	*	*	*
2G/	4C\	4CC\	4cc/	2g/	4e\	4C\	W_nim	Je-	Cno-	.	4e/	4cc\	W_nim	.
.	8D\L	8DD\L	8b/L	.	8f\L	8D\	i	-go	-tą	.	8f/	8b\	i	.
.	8E\J	8EE\J	8cc/J	.	8e\J	8E\	dla	iest	Ku	.	8g/	8cc\	dla	.
*	*	*	*	*v	*v	*	*	*	*	*	*	*	*	*
=18	=18	=18	=18	=18	=18	=18	=18	=18	=18	=18	=18	=18	=18
4F/	4F\	4FF\	8b/L	4c\	4F\	Nie-	wie-	Nie-	.	4c/	8b/L	Nie-	.
.	.	.	8a/	.	.	.	.	.	.	.	8a/J	.	.
4A/	8E\L	8EE\L	8g/	8c#X\L	8E\	-go	-czność	-mu	.	8c#X/	8g/	-go	.
.	8D\J	8DD\J	8f/J	8d\J	8D\	ie-	bez	się	.	8d/	8f/	ie-	.
*	*v	*v	*	*	*	*	*	*	*	*	*	*	*
*	*	*v	*v	*	*	*	*	*	*	*	*	*
!!LO:LB:g=original
=19	=19	=19	=19	=19	=19	=19	=19	=19	=19	=19	=19
4G\	2GG\	4cn/ 4e	(4G\	-ste-	koń-	wzno-	.	(>4cn/	(4e/	-ste-	.
4GG/ 4F	.	4B/ 4d	4GG/)	.	.	.	.	4B/)	4d/)	.	.
=20	=20	=20	=20	=20	=20	=20	=20	=20	=20	=20	=20
!LO:TX:t=1. 2.	!LO:TX:t=1. 2.	!LO:TX:t=1. 2.	!	!	!	!	!	!LO:TX:t=1. 2.	!LO:TX:t=1. 2.	!	!
*>A1	*>A1	*>A1	*>A1	*	*	*	*	*>A1	*>A1	*	*
4E/	4CC\ 4C	4c/	4C/	-ście	-ca	-szą	.	4c/	4c/	-ście	.
4G/	4r	4g/	4r	.	.	.	.	4r	4r	.	.
=21:|!	=21:|!	=21:|!	=21:|!	=21:|!	=21:|!	=21:|!	=21:|!	=21:|!	=21:|!	=21:|!	=21:|!
!LO:TX:t=3.	!LO:TX:t=3.	!LO:TX:t=3.	!	!	!	!	!	!	!	!	!
*>A2	*>A2	*>A2	*>A2	*>A2	*	*	*	*	*>A2	*>A2	*
*	*^	*	*	*	*	*	*	*	*	*	*
4E/	4C\	2CC\	4c/	2ryy	.	.	.	.	2ryy	2ryy	.	.
4G/	4C\	.	4c/ 4e 4cc	.	.	.	.	.	.	.	.	.
*	*v	*v	*	*	*	*	*	*	*	*	*	*
=22	=22	=22	=22	=22	=22	=22	=22	=22	=22	=22	=22
2F\ 2A	2FF\	[2c/ 2f 2a	2ryy	.	.	.	.	2ryy	2ryy	.	.
=23	=23	=23	=23	=23	=23	=23	=23	=23	=23	=23	=23
[2C\ [2G	2CC\	2c/_ [>2e [2g [2cc	2ryy	.	.	.	.	2ryy	2ryy	.	.
=24	=24	=24	=24	=24	=24	=24	=24	=24	=24	=24	=24
2C;<\] 2G]	2CC\	2c;/] 2e] 2g] 2cc]	2ryy	.	.	.	.	2ryy	2ryy	.	.
*v	*v	*	*	*	*	*	*	*	*	*	*
!!LO:PB:g=original
==	==	==	==	==	==	==	==	==	==	==
*-	*-	*-	*-	*-	*-	*-	*-	*-	*-	*-
!!!system-decoration: [(s1,s2,s3)]{(s4,s5)}
!!!RDF**kern: < = below
!!!RDF**kern: > = above
!!!ENC: Marta Chmielewska
!!!END: 2021-04-22
!!!ENC: Andrzej Gręziak
!!!END: 2021-04-06
